humanity-icon-theme/Humanity/mimes/24/application-vnd.ms-access.svg

<?xml version="1.0" encoding="UTF-8" standalone="no"?>
<!-- Created with Inkscape (http://www.inkscape.org/) -->
<svg
   xmlns:svg="http://www.w3.org/2000/svg"
   xmlns="http://www.w3.org/2000/svg"
   xmlns:xlink="http://www.w3.org/1999/xlink"
   version="1.0"
   width="24"
   height="24"
   id="svg3473">
  <defs
     id="defs3475">
    <linearGradient
       id="linearGradient5048">
      <stop
         id="stop5050"
         style="stop-color:#000000;stop-opacity:0"
         offset="0" />
      <stop
         id="stop5056"
         style="stop-color:#000000;stop-opacity:1"
         offset="0.5" />
      <stop
         id="stop5052"
         style="stop-color:#000000;stop-opacity:0"
         offset="1" />
    </linearGradient>
    <linearGradient
       x1="302.85715"
       y1="366.64789"
       x2="302.85715"
       y2="609.50507"
       id="linearGradient2447"
       xlink:href="#linearGradient5048"
       gradientUnits="userSpaceOnUse"
       gradientTransform="matrix(3.52071e-2,0,0,8.23529e-3,-0.724852,18.980551)" />
    <radialGradient
       cx="605.71429"
       cy="486.64789"
       r="117.14286"
       fx="605.71429"
       fy="486.64789"
       id="radialGradient2444"
       xlink:href="#linearGradient5060"
       gradientUnits="userSpaceOnUse"
       gradientTransform="matrix(-1.204859e-2,0,0,8.23529e-3,10.761206,18.980568)" />
    <linearGradient
       id="linearGradient5060">
      <stop
         id="stop5062"
         style="stop-color:#000000;stop-opacity:1"
         offset="0" />
      <stop
         id="stop5064"
         style="stop-color:#000000;stop-opacity:0"
         offset="1" />
    </linearGradient>
    <radialGradient
       cx="605.71429"
       cy="486.64789"
       r="117.14286"
       fx="605.71429"
       fy="486.64789"
       id="radialGradient2441"
       xlink:href="#linearGradient5060"
       gradientUnits="userSpaceOnUse"
       gradientTransform="matrix(1.204859e-2,0,0,8.23529e-3,13.238794,18.980568)" />
    <linearGradient
       id="linearGradient4711-257">
      <stop
         id="stop4963"
         style="stop-color:#643340;stop-opacity:1"
         offset="0" />
      <stop
         id="stop4965"
         style="stop-color:#a77a86;stop-opacity:1"
         offset="1" />
    </linearGradient>
    <linearGradient
       x1="-51.786404"
       y1="53.623615"
       x2="-51.786404"
       y2="2.9062471"
       id="linearGradient3405"
       xlink:href="#linearGradient4711-257"
       gradientUnits="userSpaceOnUse"
       gradientTransform="matrix(0.3922137,0,0,0.4473607,29.199293,-1.2386986)" />
    <linearGradient
       id="linearGradient4145-42">
      <stop
         id="stop4953"
         style="stop-color:#e694bb;stop-opacity:1"
         offset="0" />
      <stop
         id="stop4955"
         style="stop-color:#d3819a;stop-opacity:1"
         offset="0.26238" />
      <stop
         id="stop4957"
         style="stop-color:#b25a64;stop-opacity:1"
         offset="0.704952" />
      <stop
         id="stop4959"
         style="stop-color:#98313d;stop-opacity:1"
         offset="1" />
    </linearGradient>
    <radialGradient
       cx="14.239056"
       cy="11.49049"
       r="18.000002"
       fx="14.239056"
       fy="11.49049"
       id="radialGradient3403"
       xlink:href="#linearGradient4145-42"
       gradientUnits="userSpaceOnUse"
       gradientTransform="matrix(0,1.5890979,-2.5735756,0,36.378536,-19.497874)" />
    <linearGradient
       id="linearGradient3211">
      <stop
         id="stop3213"
         style="stop-color:#ffffff;stop-opacity:1"
         offset="0" />
      <stop
         id="stop3215"
         style="stop-color:#ffffff;stop-opacity:0"
         offset="1" />
    </linearGradient>
    <linearGradient
       x1="24"
       y1="1.9999999"
       x2="24"
       y2="46.01725"
       id="linearGradient2429"
       xlink:href="#linearGradient3211"
       gradientUnits="userSpaceOnUse"
       gradientTransform="matrix(0.4545444,0,0,0.4651153,1.0909345,0.3372293)" />
    <linearGradient
       id="linearGradient8589">
      <stop
         id="stop8591"
         style="stop-color:#fefefe;stop-opacity:1"
         offset="0" />
      <stop
         id="stop8593"
         style="stop-color:#cbcbcb;stop-opacity:1"
         offset="1" />
    </linearGradient>
    <linearGradient
       x1="32.892288"
       y1="8.0590115"
       x2="36.358372"
       y2="5.4565363"
       id="linearGradient2425"
       xlink:href="#linearGradient8589"
       gradientUnits="userSpaceOnUse"
       gradientTransform="matrix(0.4778466,0,0,0.5524833,0.3722548,-7.61283e-2)" />
    <linearGradient
       id="linearGradient8265-821-176-38-919-66-249">
      <stop
         id="stop2687"
         style="stop-color:#ffffff;stop-opacity:1"
         offset="0" />
      <stop
         id="stop2689"
         style="stop-color:#ffffff;stop-opacity:0"
         offset="1" />
    </linearGradient>
    <linearGradient
       x1="16.626165"
       y1="15.298182"
       x2="20.054544"
       y2="24.627615"
       id="linearGradient3376"
       xlink:href="#linearGradient8265-821-176-38-919-66-249"
       gradientUnits="userSpaceOnUse"
       gradientTransform="matrix(0.3482993,0,0,0.6967199,3.640816,-3.1585463)" />
    <linearGradient
       id="linearGradient4000">
      <stop
         id="stop4002"
         style="stop-color:#000000;stop-opacity:1"
         offset="0" />
      <stop
         id="stop4004"
         style="stop-color:#000000;stop-opacity:0"
         offset="1" />
    </linearGradient>
    <linearGradient
       x1="75.854454"
       y1="28"
       x2="91"
       y2="12"
       id="linearGradient3465"
       xlink:href="#linearGradient4000"
       gradientUnits="userSpaceOnUse"
       gradientTransform="matrix(0.5606869,0,0,0.4468189,-29.283614,3.0838632)"
       spreadMethod="reflect" />
    <linearGradient
       id="linearGradient5293">
      <stop
         id="stop5295"
         style="stop-color:#ffffff;stop-opacity:1"
         offset="0" />
      <stop
         id="stop5297"
         style="stop-color:#ffffff;stop-opacity:0"
         offset="1" />
    </linearGradient>
    <linearGradient
       x1="75.854454"
       y1="28"
       x2="91"
       y2="12"
       id="linearGradient3462"
       xlink:href="#linearGradient5293"
       gradientUnits="userSpaceOnUse"
       gradientTransform="matrix(0.5606869,0,0,0.4468189,-29.283614,2.5437301)"
       spreadMethod="reflect" />
    <linearGradient
       id="linearGradient4106">
      <stop
         id="stop4108"
         style="stop-color:#51293c;stop-opacity:1"
         offset="0" />
      <stop
         id="stop4110"
         style="stop-color:#876374;stop-opacity:1"
         offset="1" />
    </linearGradient>
    <linearGradient
       x1="24.239185"
       y1="44.110138"
       x2="24.239185"
       y2="0.19081046"
       id="linearGradient3450"
       xlink:href="#linearGradient4106"
       gradientUnits="userSpaceOnUse"
       gradientTransform="matrix(0.5042588,0,0,0.5029191,1.9071584,-0.4284744)" />
  </defs>
  <g
     id="layer1">
    <rect
       width="17"
       height="1.9999981"
       x="3.5000005"
       y="21.999998"
       id="rect2879"
       style="opacity:0.15;fill:url(#linearGradient2447);fill-opacity:1;fill-rule:nonzero;stroke:none;stroke-width:1;marker:none;visibility:visible;display:inline;overflow:visible" />
    <path
       d="M 3.5,22.000086 C 3.5,22.000086 3.5,23.999975 3.5,23.999975 C 2.8795275,24.00374 2,23.551901 2,22.999901 C 2,22.447902 2.6924,22.000086 3.5,22.000086 z"
       id="path2881"
       style="opacity:0.15;fill:url(#radialGradient2444);fill-opacity:1;fill-rule:nonzero;stroke:none;stroke-width:1;marker:none;visibility:visible;display:inline;overflow:visible" />
    <path
       d="M 20.5,22.000086 C 20.5,22.000086 20.5,23.999975 20.5,23.999975 C 21.120472,24.003775 22,23.551901 22,22.999901 C 22,22.447902 21.307599,22.000086 20.5,22.000086 L 20.5,22.000086 z"
       id="path2883"
       style="opacity:0.15;fill:url(#radialGradient2441);fill-opacity:1;fill-rule:nonzero;stroke:none;stroke-width:1;marker:none;visibility:visible;display:inline;overflow:visible" />
    <path
       d="M 3.4999617,0.49996097 C 7.3955416,0.49996097 11.104417,0.49996097 15,0.49996097 C 15.683368,0.73725787 19.541325,3.628131 20.5,5.5 C 20.5,11.229157 20.500039,16.770881 20.500039,22.500039 C 14.833346,22.500039 9.1666545,22.500039 3.4999617,22.500039 C 3.4999617,15.166679 3.4999617,7.8333189 3.4999617,0.49996097 L 3.4999617,0.49996097 z"
       id="path4160"
       style="opacity:1;fill:url(#radialGradient3403);fill-opacity:1;fill-rule:nonzero;stroke:url(#linearGradient3405);stroke-width:0.9999218;stroke-linecap:butt;stroke-linejoin:round;marker:none;marker-start:none;marker-mid:none;marker-end:none;stroke-miterlimit:4;stroke-dasharray:none;stroke-dashoffset:0;stroke-opacity:1;visibility:visible;display:inline;overflow:visible;enable-background:accumulate" />
    <path
       d="M 19.500001,5.6770357 C 19.500001,10.885341 19.500001,16.291693 19.500001,21.5 C 14.500001,21.5 9.5000012,21.5 4.5,21.5 C 4.5,14.83333 4.5,8.1666657 4.5,1.4999999 C 7.9372614,1.4999999 11.456499,1.4999999 14.893761,1.4999999"
       id="path2435"
       style="opacity:0.4;fill:none;stroke:url(#linearGradient2429);stroke-width:0.99999988;stroke-linecap:butt;stroke-linejoin:miter;stroke-miterlimit:4;stroke-dasharray:none;stroke-dashoffset:0;stroke-opacity:1;display:inline" />
    <path
       d="M 14.075474,1 C 15.231777,1.3287671 14.414533,5.6143789 14.414533,5.6143789 C 14.414533,5.6143789 18.929921,5.1866427 20.022243,6.809375 C 21.511396,9.0216317 19.954018,6.1742029 19.848796,5.9876778 C 19.092868,4.6476323 15.982456,1.4405918 14.803387,1.0464703 C 14.715155,1.0169778 14.519511,1 14.075474,1 z"
       id="path3370"
       style="opacity:0.2;fill:#000000;fill-opacity:1;fill-rule:evenodd;stroke:none;display:inline" />
    <path
       d="M 14,1 C 15.526166,1 15,5 15,5 C 15,5 19.992074,4.54674 19.992074,7 C 19.992074,6.4022581 20.047824,5.5215662 19.928004,5.3440674 C 19.088897,4.1010616 16.184239,1.4821803 15.129935,1.0464703 C 15.043957,1.0109384 14.444037,1 14,1 z"
       id="path4474"
       style="fill:url(#linearGradient2425);fill-opacity:1;fill-rule:evenodd;stroke:none;display:inline" />
    <path
       d="M 4.7619044,1.0000005 C 4.3410625,1.0000005 4,1.682244 4,2.5240739 L 4,13.671593 C 4.000965,13.765372 4.0215241,13.854055 4.0566849,13.916116 C 4.0918466,13.978178 4.1383962,14.007941 4.1850331,13.998178 L 19.858503,9.0340495 C 19.939128,9.008616 19.998873,8.870716 20,8.707462 L 20,5.7073203 C 20,5.7073203 14.901785,1.0000005 14.901785,1.0000005 L 4.7619044,1.0000005 z"
       id="path3879"
       style="opacity:0.2;fill:url(#linearGradient3376);fill-opacity:1;fill-rule:evenodd;stroke:none;stroke-width:1.00213289;stroke-linecap:round;stroke-linejoin:round;stroke-miterlimit:4;stroke-dasharray:none;stroke-dashoffset:0;stroke-opacity:1" />
    <path
       d="M 16.345118,8.445691 C 16.139187,8.4374955 15.933988,8.4467974 15.733287,8.4628764 C 13.967123,8.6043761 12.440149,9.6712231 11.852994,11.3672 C 11.491195,12.412249 11.563496,13.519246 11.949598,14.546488 L 4.0000009,21.513879 L 4.0000009,21.999999 L 8.7026173,21.999999 L 8.6006313,20.664471 L 11.192861,21.180032 L 11.498776,18.791269 L 13.929997,19.30683 L 15.523977,17.949187 C 17.151749,18.477181 18.803526,18.207449 20,17.330514 C 20,15.418855 20,13.525004 20,11.607795 C 19.802493,11.657474 19.573299,11.645185 19.355968,11.556239 C 18.825397,11.339093 18.525706,10.758751 18.695835,10.267337 C 18.823431,9.8987804 19.189626,9.6598821 19.581379,9.6658502 C 19.711963,9.6678406 19.851256,9.6974909 19.9839,9.751777 C 19.991081,9.7547165 19.992911,9.7658908 20,9.7689625 C 20,9.4702283 20,9.1735801 20,8.8753247 C 19.481649,8.7358784 18.959809,8.7926133 18.550928,9.0299925 C 18.439929,8.9760978 18.344505,8.9054485 18.228912,8.8581394 C 17.604665,8.6026557 16.962911,8.4702775 16.345118,8.445691 z"
       id="path5316"
       style="opacity:0.1;fill:url(#linearGradient3465);fill-opacity:1;fill-rule:nonzero;stroke:none;stroke-width:0.91176528;stroke-linecap:butt;stroke-linejoin:miter;marker:none;marker-start:none;marker-mid:none;marker-end:none;stroke-miterlimit:4;stroke-dasharray:none;stroke-dashoffset:0;stroke-opacity:1;visibility:visible;display:inline;overflow:visible;enable-background:accumulate" />
    <path
       d="M 16.345118,7.9055579 C 16.139187,7.8973619 15.933988,7.9066639 15.733287,7.9227432 C 13.967123,8.0642431 12.440149,9.1310894 11.852994,10.827066 C 11.491195,11.872115 11.563496,12.979112 11.949598,14.006355 L 4.0000009,21.027759 C 4.0000009,21.027759 4.0217584,21.999999 4.0217584,21.999999 C 5.5963527,21.999999 7.1709411,21.999999 8.7455382,21.999999 L 8.6006313,20.124339 L 11.192861,20.6399 L 11.498776,18.251136 L 13.929997,18.766697 L 15.523977,17.409054 C 17.151749,17.937048 18.803526,17.667315 20,16.790383 C 20,14.878722 20,12.984871 20,11.067661 C 19.802493,11.11734 19.573299,11.105051 19.355968,11.016106 C 18.825397,10.798959 18.525706,10.218618 18.695835,9.7272051 C 18.823431,9.3586479 19.189626,9.1197491 19.581379,9.1257172 C 19.711963,9.1277069 19.851256,9.1573579 19.9839,9.2116442 C 19.991081,9.2145833 19.992911,9.2257578 20,9.228829 C 20,8.9300948 20,8.6334469 20,8.335191 C 19.481649,8.1957447 18.959809,8.2524802 18.550928,8.4898593 C 18.439929,8.4359647 18.344505,8.3653149 18.228912,8.3180057 C 17.604665,8.0625227 16.962911,7.9301445 16.345118,7.9055579 z"
       id="path5283"
       style="opacity:0.4;fill:url(#linearGradient3462);fill-opacity:1;fill-rule:nonzero;stroke:none;stroke-width:0.91176528;stroke-linecap:butt;stroke-linejoin:miter;marker:none;marker-start:none;marker-mid:none;marker-end:none;stroke-miterlimit:4;stroke-dasharray:none;stroke-dashoffset:0;stroke-opacity:1;visibility:visible;display:inline;overflow:visible;enable-background:accumulate" />
    <path
       d="M 14.648385,18 C 14.397948,17.130791 14.250438,15.86921 14,15 C 12.737792,15 11.475583,15 10.213373,15 C 9.9604297,15.86921 9.6045584,17.130791 9.3516156,18 C 8.5677445,18 7.7838723,18 7,18 C 8.1895817,14.333334 9.3791645,10.666666 10.568746,7 C 11.517907,7 12.467068,7 13.416228,7 C 14.610819,10.666666 15.80541,14.333334 17,18 C 16.216128,18 15.432257,18 14.648385,18 z M 13.356125,13.444143 C 12.943409,11.991459 12.468003,10.555959 12.109761,9.088612 C 12.040555,8.867585 12.009955,8.2797982 11.945996,8.8245965 C 11.596164,10.383807 11.113792,11.908764 10.673931,13.444143 C 11.567993,13.444143 12.46206,13.444143 13.356125,13.444143 z"
       id="path3467"
       style="font-size:30.51395607px;font-style:normal;font-variant:normal;font-weight:bold;font-stretch:normal;opacity:0.4;fill:#ffffff;fill-opacity:1;fill-rule:nonzero;stroke:none;stroke-width:1px;stroke-linecap:butt;stroke-linejoin:miter;marker:none;marker-start:none;marker-mid:none;marker-end:none;stroke-miterlimit:4;stroke-dasharray:none;stroke-dashoffset:0;stroke-opacity:1;visibility:visible;display:inline;overflow:visible;enable-background:accumulate;font-family:Droid Sans;-inkscape-font-specification:Droid Sans Bold" />
    <path
       d="M 14.648385,17 C 14.397948,16.130791 14.250438,14.86921 14,14 C 12.737792,14 11.475583,14 10.213373,14 C 9.9604297,14.86921 9.6045584,16.130791 9.3516156,17 C 8.5677445,17 7.7838723,17 7,17 C 8.1895817,13.333334 9.3791645,9.666666 10.568746,6 C 11.517907,6 12.467068,6 13.416228,6 C 14.610819,9.666666 15.80541,13.333334 17,17 C 16.216128,17 15.432257,17 14.648385,17 z M 13.356125,12 C 13.075508,10.860097 12.117224,8.3417866 12,8 C 11.650168,9.5592105 11.113792,10.464621 10.673931,12 C 11.567993,12 12.46206,12 13.356125,12 z"
       id="text3893"
       style="font-size:30.51395607px;font-style:normal;font-variant:normal;font-weight:bold;font-stretch:normal;fill:url(#linearGradient3450);fill-opacity:1;stroke:none;stroke-width:1px;stroke-linecap:butt;stroke-linejoin:miter;stroke-opacity:1;font-family:Droid Sans;-inkscape-font-specification:Droid Sans Bold" />
  </g>
</svg>

<?xml version="1.0" encoding="UTF-8" standalone="no"?>
<!-- Created with Inkscape (http://www.inkscape.org/) -->
<svg id="svg3473" xmlns="http://www.w3.org/2000/svg" height="24" width="24" version="1.0" xmlns:xlink="http://www.w3.org/1999/xlink">
 <defs id="defs3475">
  <linearGradient id="linearGradient2447" y2="609.51" gradientUnits="userSpaceOnUse" x2="302.86" gradientTransform="matrix(.035207 0 0 .0082353 -.72485 18.981)" y1="366.65" x1="302.86">
   <stop id="stop5050" style="stop-opacity:0" offset="0"/>
   <stop id="stop5056" offset=".5"/>
   <stop id="stop5052" style="stop-opacity:0" offset="1"/>
  </linearGradient>
  <radialGradient id="radialGradient2444" xlink:href="#linearGradient5060" gradientUnits="userSpaceOnUse" cy="486.65" cx="605.71" gradientTransform="matrix(-.012049 0 0 .0082353 10.761 18.981)" r="117.14"/>
  <linearGradient id="linearGradient5060">
   <stop id="stop5062" offset="0"/>
   <stop id="stop5064" style="stop-opacity:0" offset="1"/>
  </linearGradient>
  <radialGradient id="radialGradient2441" xlink:href="#linearGradient5060" gradientUnits="userSpaceOnUse" cy="486.65" cx="605.71" gradientTransform="matrix(.012049 0 0 .0082353 13.239 18.981)" r="117.14"/>
  <linearGradient id="linearGradient3405" y2="2.9062" gradientUnits="userSpaceOnUse" x2="-51.786" gradientTransform="matrix(.39221 0 0 .44736 29.199 -1.2387)" y1="53.624" x1="-51.786">
   <stop id="stop4963" style="stop-color:#643340" offset="0"/>
   <stop id="stop4965" style="stop-color:#a77a86" offset="1"/>
  </linearGradient>
  <radialGradient id="radialGradient3403" gradientUnits="userSpaceOnUse" cy="11.49" cx="14.239" gradientTransform="matrix(0 1.5891 -2.5736 0 36.379 -19.498)" r="18">
   <stop id="stop4953" style="stop-color:#e694bb" offset="0"/>
   <stop id="stop4955" style="stop-color:#d3819a" offset=".26238"/>
   <stop id="stop4957" style="stop-color:#b25a64" offset=".70495"/>
   <stop id="stop4959" style="stop-color:#98313d" offset="1"/>
  </radialGradient>
  <linearGradient id="linearGradient2429" y2="46.017" gradientUnits="userSpaceOnUse" x2="24" gradientTransform="matrix(.45454 0 0 .46512 1.0909 .33723)" y1="2" x1="24">
   <stop id="stop3213" style="stop-color:#fff" offset="0"/>
   <stop id="stop3215" style="stop-color:#fff;stop-opacity:0" offset="1"/>
  </linearGradient>
  <linearGradient id="linearGradient2425" y2="5.4565" gradientUnits="userSpaceOnUse" x2="36.358" gradientTransform="matrix(.47785 0 0 .55248 .37225 -.076128)" y1="8.059" x1="32.892">
   <stop id="stop8591" style="stop-color:#fefefe" offset="0"/>
   <stop id="stop8593" style="stop-color:#cbcbcb" offset="1"/>
  </linearGradient>
  <linearGradient id="linearGradient3376" y2="24.628" gradientUnits="userSpaceOnUse" x2="20.055" gradientTransform="matrix(.34830 0 0 .69672 3.6408 -3.1585)" y1="15.298" x1="16.626">
   <stop id="stop2687" style="stop-color:#fff" offset="0"/>
   <stop id="stop2689" style="stop-color:#fff;stop-opacity:0" offset="1"/>
  </linearGradient>
  <linearGradient id="linearGradient3465" y2="12" spreadMethod="reflect" gradientUnits="userSpaceOnUse" x2="91" gradientTransform="matrix(.56069 0 0 .44682 -29.284 3.0839)" y1="28" x1="75.854">
   <stop id="stop4002" offset="0"/>
   <stop id="stop4004" style="stop-opacity:0" offset="1"/>
  </linearGradient>
  <linearGradient id="linearGradient3462" y2="12" spreadMethod="reflect" gradientUnits="userSpaceOnUse" x2="91" gradientTransform="matrix(.56069 0 0 .44682 -29.284 2.5437)" y1="28" x1="75.854">
   <stop id="stop5295" style="stop-color:#fff" offset="0"/>
   <stop id="stop5297" style="stop-color:#fff;stop-opacity:0" offset="1"/>
  </linearGradient>
  <linearGradient id="linearGradient3450" y2=".19081" gradientUnits="userSpaceOnUse" x2="24.239" gradientTransform="matrix(.50426 0 0 .50292 1.9072 -.42847)" y1="44.11" x1="24.239">
   <stop id="stop4108" style="stop-color:#51293c" offset="0"/>
   <stop id="stop4110" style="stop-color:#876374" offset="1"/>
  </linearGradient>
 </defs>
 <g id="layer1">
  <rect id="rect2879" style="opacity:.15;fill:url(#linearGradient2447)" height="2" width="17" y="22" x="3.5"/>
  <path id="path2881" style="opacity:.15;fill:url(#radialGradient2444)" d="m3.5 22v2c-0.6205 0.004-1.5-0.448-1.5-1s0.6924-1 1.5-1z"/>
  <path id="path2883" style="opacity:.15;fill:url(#radialGradient2441)" d="m20.5 22v2c0.62 0.004 1.5-0.448 1.5-1s-0.692-1-1.5-1z"/>
  <path id="path4160" style="stroke-linejoin:round;stroke-width:.99992;stroke:url(#linearGradient3405);fill:url(#radialGradient3403)" d="m3.5 0.49996h11.5c0.683 0.2373 4.541 3.1281 5.5 5v17h-17v-22-0.00004z"/>
  <path id="path2435" style="opacity:.4;stroke:url(#linearGradient2429);fill:none" d="m19.5 5.677v15.823h-15v-20h10.394"/>
  <path id="path3370" style="opacity:.2;fill-rule:evenodd" d="m14.075 1c1.157 0.3288 0.34 4.6144 0.34 4.6144s4.515-0.4278 5.607 1.195c1.489 2.2122-0.068-0.6352-0.173-0.8217-0.756-1.3401-3.867-4.5471-5.046-4.9412-0.088-0.0295-0.283-0.0465-0.728-0.0465z"/>
  <path id="path4474" style="fill:url(#linearGradient2425);fill-rule:evenodd" d="m14 1c1.526 0 1 4 1 4s4.992-0.4533 4.992 2c0-0.5977 0.056-1.4784-0.064-1.6559-0.839-1.243-3.744-3.8619-4.798-4.2976-0.086-0.0356-0.686-0.0465-1.13-0.0465z"/>
  <path id="path3879" style="opacity:.2;fill:url(#linearGradient3376);fill-rule:evenodd" d="m4.7619 1c-0.4208 0-0.7619 0.6822-0.7619 1.5241v11.148c0.001 0.093 0.0215 0.182 0.0567 0.244 0.0351 0.062 0.0817 0.092 0.1283 0.082l15.674-4.964c0.08-0.0254 0.14-0.1633 0.141-0.3265v-3.0002l-5.098-4.7073h-10.14z"/>
  <path id="path5316" style="opacity:.1;fill:url(#linearGradient3465)" d="m16.345 8.4457c-0.206-0.0082-0.411 0.0011-0.612 0.0172-1.766 0.1415-3.293 1.2083-3.88 2.9041-0.362 1.045-0.29 2.152 0.097 3.179l-7.95 6.968v0.486h4.7026l-0.102-1.336 2.5924 0.516 0.306-2.389 2.431 0.516 1.594-1.358c1.628 0.528 3.28 0.258 4.476-0.618v-5.723c-0.198 0.049-0.427 0.037-0.644-0.052-0.531-0.217-0.83-0.797-0.66-1.289 0.127-0.3682 0.494-0.6071 0.885-0.6011 0.131 0.0019 0.27 0.0316 0.403 0.0859 0.007 0.0029 0.009 0.0141 0.016 0.0172v-0.8937c-0.518-0.1394-1.04-0.0827-1.449 0.1547-0.111-0.0539-0.206-0.1246-0.322-0.1719-0.624-0.2554-1.266-0.3878-1.884-0.4124z"/>
  <path id="path5283" style="opacity:.4;fill:url(#linearGradient3462)" d="m16.345 7.9056c-0.206-0.0082-0.411 0.0011-0.612 0.0171-1.766 0.1415-3.293 1.2084-3.88 2.9043-0.362 1.045-0.29 2.152 0.097 3.179l-7.95 7.022 0.0218 0.972h4.7237l-0.1449-1.876 2.5924 0.516 0.306-2.389 2.431 0.516 1.594-1.358c1.628 0.528 3.28 0.258 4.476-0.619v-5.722c-0.198 0.049-0.427 0.037-0.644-0.052-0.531-0.217-0.83-0.797-0.66-1.2888 0.127-0.3686 0.494-0.6075 0.885-0.6015 0.131 0.002 0.27 0.0317 0.403 0.0859 0.007 0.003 0.009 0.0142 0.016 0.0172v-0.8936c-0.518-0.1395-1.04-0.0827-1.449 0.1547-0.111-0.0539-0.206-0.1246-0.322-0.1719-0.624-0.2555-1.266-0.3879-1.884-0.4124z"/>
  <path id="path3467" style="opacity:.4;fill:#fff" d="m14.648 18c-0.25-0.869-0.398-2.131-0.648-3h-3.787c-0.2526 0.869-0.6084 2.131-0.8614 3h-2.3516c1.1896-3.667 2.3792-7.333 3.569-11h2.847c1.195 3.667 2.389 7.333 3.584 11h-2.352zm-1.292-4.556c-0.413-1.453-0.888-2.888-1.246-4.3554-0.069-0.221-0.1-0.8088-0.164-0.264-0.35 1.5594-0.832 3.0844-1.272 4.6194h2.682z"/>
  <path id="text3893" style="fill:url(#linearGradient3450)" d="m14.648 17c-0.25-0.869-0.398-2.131-0.648-3h-3.787c-0.2526 0.869-0.6084 2.131-0.8614 3h-2.3516c1.1896-3.667 2.3792-7.3333 3.569-11h2.847c1.195 3.6667 2.389 7.333 3.584 11h-2.352zm-1.292-5c-0.28-1.14-1.239-3.6582-1.356-4-0.35 1.5592-0.886 2.465-1.326 4h2.682z"/>
 </g>
</svg>
